static/logos/front-wordmark-color.svg

<svg width="100" height="34" viewBox="0 0 100 34" fill="none" xmlns="http://www.w3.org/2000/svg">
<g clip-path="url(#clip0_1_2708)">
<path d="M0.132812 5.48355C0.132812 2.4552 2.58783 0 5.61638 0H23.2003V7.8034C23.2003 9.31758 21.9729 10.5452 20.4585 10.5452H13.3143C11.8583 10.5452 10.678 11.7255 10.678 13.1815V30.2119C10.678 31.7261 9.4504 32.9535 7.93622 32.9535H0.132812V5.48355Z" fill="#001B38"/>
<path d="M6.26562 13.2472C6.26562 17.1784 9.45245 20.3652 13.3836 20.3652C17.3148 20.3652 20.5015 17.1784 20.5015 13.2472C20.5015 9.31608 17.3148 6.12927 13.3836 6.12927C9.45245 6.12927 6.26562 9.31608 6.26562 13.2472Z" fill="url(#paint0_linear_1_2708)"/>
<path opacity="0.5" d="M6.26562 13.2472C6.26562 17.1784 9.45245 20.3652 13.3836 20.3652C17.3148 20.3652 20.5015 17.1784 20.5015 13.2472C20.5015 9.31608 17.3148 6.12927 13.3836 6.12927C9.45245 6.12927 6.26562 9.31608 6.26562 13.2472Z" fill="url(#paint1_linear_1_2708)"/>
<path d="M51.9664 16.0826V13.5401H48.4603V27.9385H50.8248C51.1276 27.9385 51.4178 27.8183 51.632 27.6035C51.8459 27.3892 51.9662 27.0984 51.9664 26.795V21.1389C51.9664 18.3963 52.8495 16.4818 55.0741 16.4818H57.3259V13.539H55.6435C53.7909 13.5401 52.6796 14.2536 51.9664 16.0826ZM65.4503 13.3116C61.0596 13.3116 57.9244 16.4546 57.9244 20.7389C57.9244 25.0234 61.0607 28.1663 65.4503 28.1663C69.8123 28.1663 72.9475 25.0234 72.9475 20.7389C72.9475 16.4546 69.8123 13.3116 65.4503 13.3116ZM65.4503 25.1387C63.0558 25.1387 61.4594 23.3387 61.4594 20.7389C61.4594 18.1392 63.0558 16.3389 65.4503 16.3389C67.8163 16.3389 69.4129 18.1392 69.4129 20.7389C69.4129 23.3387 67.8163 25.1387 65.4503 25.1387ZM83.0683 13.3116C81.0165 13.3116 79.3911 14.1967 78.5923 15.7682V13.5404H75.0862V27.9385H77.4511C77.7535 27.9385 78.0437 27.8179 78.2579 27.6035C78.4717 27.3892 78.5923 27.0981 78.5923 26.795V20.0824C78.5923 17.9688 79.9607 16.4259 81.927 16.4259C83.7235 16.4259 84.9204 17.7972 84.9204 19.7689V27.9396H87.2853C87.5877 27.9396 87.8783 27.8188 88.0921 27.6047C88.3062 27.3903 88.4265 27.0996 88.4269 26.796V19.0257C88.4278 15.654 86.3174 13.3116 83.0683 13.3116ZM100.002 15.3396V13.5404H96.0108V9.19766H92.5049V12.597C92.5049 13.2823 92.1622 13.5393 91.5926 13.5393H89.6822V16.4821H92.5049V22.9102C92.5049 26.11 94.5579 27.9379 97.693 27.9379H100.002V24.7663H98.0913C96.7802 24.7663 96.0098 24.024 96.0098 22.5669V16.4821H98.8594C99.0093 16.4825 99.1579 16.4531 99.2966 16.3958C99.4352 16.3385 99.5611 16.2544 99.6671 16.1482C99.773 16.0423 99.8573 15.9161 99.915 15.7772C99.972 15.6387 100.002 15.4897 100.002 15.3396ZM34.4062 11.5686V27.9389H37.028C37.3306 27.9389 37.6208 27.8183 37.8348 27.6035C38.0488 27.3892 38.169 27.0984 38.1692 26.795V19.5391H45.8089V16.282H38.1692V12.1967C38.169 12.0654 38.1947 11.9352 38.2448 11.8141C38.2949 11.6926 38.3684 11.5824 38.4611 11.4896C38.5537 11.3968 38.6637 11.3232 38.7849 11.2728C38.9059 11.2227 39.0357 11.197 39.1667 11.197H46.5495C46.8522 11.197 47.1425 11.0762 47.3565 10.8616C47.5703 10.6473 47.6907 10.3565 47.6907 10.053V7.93945H38.0267C36.028 7.94055 34.4062 9.56459 34.4062 11.5686Z" fill="#061B36"/>
</g>
<defs>
<linearGradient id="paint0_linear_1_2708" x1="8.37054" y1="7.91131" x2="19.0747" y2="18.6894" gradientUnits="userSpaceOnUse">
<stop stop-color="#FF0057" stop-opacity="0.16"/>
<stop offset="0.861" stop-color="#FF0057"/>
</linearGradient>
<linearGradient id="paint1_linear_1_2708" x1="8.37054" y1="7.91131" x2="19.0747" y2="18.6894" gradientUnits="userSpaceOnUse">
<stop stop-color="#FF0057" stop-opacity="0.16"/>
<stop offset="0.861" stop-color="#FF0057"/>
</linearGradient>
<clipPath id="clip0_1_2708">
<rect width="100" height="33.0813" fill="white"/>
</clipPath>
</defs>
</svg>

<svg xmlns="http://www.w3.org/2000/svg" width="188.235" height="64" fill="none" viewBox="0 0 100 34"><g clip-path="url(#a)"><path fill="#001B38" d="M.133 5.484A5.484 5.484 0 0 1 5.616 0H23.2v7.803a2.742 2.742 0 0 1-2.741 2.742h-7.145a2.636 2.636 0 0 0-2.636 2.636v17.03a2.742 2.742 0 0 1-2.742 2.742H.133V5.483Z"/><path fill="url(#b)" d="M6.266 13.247a7.118 7.118 0 1 0 14.236 0 7.118 7.118 0 0 0-14.236 0Z"/><path fill="url(#c)" d="M6.266 13.247a7.118 7.118 0 1 0 14.236 0 7.118 7.118 0 0 0-14.236 0Z" opacity=".5"/><path fill="#061B36" d="M51.966 16.083V13.54H48.46V27.94h2.365a1.14 1.14 0 0 0 1.141-1.144v-5.656c0-2.743.883-4.657 3.108-4.657h2.252v-2.943h-1.682c-1.853.001-2.964.715-3.678 2.544Zm13.484-2.771c-4.39 0-7.526 3.143-7.526 7.427s3.137 7.427 7.526 7.427c4.362 0 7.498-3.143 7.498-7.427s-3.136-7.427-7.498-7.427Zm0 11.827c-2.394 0-3.99-1.8-3.99-4.4 0-2.6 1.596-4.4 3.99-4.4 2.366 0 3.963 1.8 3.963 4.4 0 2.6-1.597 4.4-3.963 4.4Zm17.618-11.827c-2.052 0-3.677.885-4.476 2.456V13.54h-3.506V27.94h2.365a1.14 1.14 0 0 0 1.141-1.144v-6.713c0-2.113 1.369-3.656 3.335-3.656 1.796 0 2.993 1.371 2.993 3.343v8.17h2.365a1.141 1.141 0 0 0 1.142-1.143v-7.77c0-3.372-2.11-5.714-5.359-5.714Zm16.934 2.028v-1.8h-3.991V9.198h-3.506v3.399c0 .685-.343.942-.912.942h-1.91v2.943h2.822v6.428c0 3.2 2.053 5.028 5.188 5.028h2.309v-3.172h-1.91c-1.312 0-2.082-.742-2.082-2.2v-6.084h2.85a1.137 1.137 0 0 0 1.055-.705c.057-.138.087-.287.087-.437Zm-65.596-3.771v16.37h2.622a1.145 1.145 0 0 0 1.141-1.144v-7.256h7.64v-3.257h-7.64v-4.085a.997.997 0 0 1 .998-1h7.383a1.14 1.14 0 0 0 1.14-1.144V7.939h-9.663a3.626 3.626 0 0 0-3.62 3.63Z"/></g><defs><linearGradient id="b" x1="8.371" x2="19.075" y1="7.911" y2="18.689" gradientUnits="userSpaceOnUse"><stop stop-color="#FF0057" stop-opacity=".16"/><stop offset=".861" stop-color="#FF0057"/></linearGradient><linearGradient id="c" x1="8.371" x2="19.075" y1="7.911" y2="18.689" gradientUnits="userSpaceOnUse"><stop stop-color="#FF0057" stop-opacity=".16"/><stop offset=".861" stop-color="#FF0057"/></linearGradient><clipPath id="a"><path fill="#fff" d="M0 0h100v33.081H0z"/></clipPath></defs></svg>
